packages/core/src/svgs/moc.svg

<svg width="24" height="24" viewBox="0 0 24 24" fill="none" xmlns="http://www.w3.org/2000/svg">
<g clip-path="url(#clip0_31_14124)">
<path d="M0 0H24V24H0V0Z" fill="#F0F3FA"/>
<path d="M12 18.8574C15.7871 18.8574 18.8571 15.7873 18.8571 12.0002C18.8571 8.21311 15.7871 5.14307 12 5.14307C8.21287 5.14307 5.14282 8.21311 5.14282 12.0002C5.14282 15.7873 8.21287 18.8574 12 18.8574Z" fill="#9CE3E5"/>
<path d="M18.8571 12C18.8571 13.8186 18.1347 15.5628 16.8487 16.8487C15.5627 18.1347 13.8186 18.8571 12 18.8571C10.1813 18.8571 8.4372 18.1347 7.15123 16.8487C5.86527 15.5628 5.14282 13.8186 5.14282 12H18.8571Z" fill="#4F97A5"/>
<path d="M12 18.4284C15.5504 18.4284 18.4286 15.5503 18.4286 11.9999C18.4286 8.44946 15.5504 5.57129 12 5.57129C8.44958 5.57129 5.57141 8.44946 5.57141 11.9999C5.57141 15.5503 8.44958 18.4284 12 18.4284Z" fill="#36C7CE"/>
<path d="M12.7285 18.8143L8.7428 15L10.1314 10.4314L11.7342 12.2486L14.8414 9L18.8057 12.8571C18.6451 14.0658 18.1758 15.2127 17.4428 16.1871C16.8702 16.9154 16.1585 17.5227 15.3493 17.9737C14.54 18.4247 13.6491 18.7104 12.7285 18.8143Z" fill="#359BB1"/>
<path d="M18.4286 11.9999C18.4286 9.74986 15.6557 5.99986 12 5.99986C8.34427 5.99986 5.57141 9.42415 5.57141 11.9999C5.57141 10.2949 6.24871 8.65976 7.4543 7.45417C8.65989 6.24858 10.295 5.57129 12 5.57129C13.7049 5.57129 15.3401 6.24858 16.5457 7.45417C17.7513 8.65976 18.4286 10.2949 18.4286 11.9999Z" fill="#3AB1D3"/>
<path d="M8.90148 11.4131V9.20166H10.3115L11.9229 11.8459L13.5086 9.20166H15.0001V11.4131L16.2858 11.2117L16.4572 11.4131V12.0002H15.0001V12.6131L16.2815 12.4117L16.4529 12.6131V13.2131H15.0001V15.2059H13.6843L13.5129 15.0002L13.6843 11.4131L11.8843 13.8559L10.2043 11.4131V15.2059H8.97005L8.74291 15.0002L8.90148 13.2131H7.44434L7.28577 13.0074L7.44434 12.6131H8.90148V11.9874H7.44434L7.28577 11.7859L7.44434 11.4131H8.90148Z" fill="#28808E"/>
<path d="M8.74291 11.2114V9H10.2172L11.7601 11.5329L13.3372 9H14.8372V11.2114H16.2858V11.7857H14.8415V12.4071H16.2858V13.0071H14.8415V15H13.5129V11.2114L11.7558 13.6629L10.0415 11.2114V15H8.74291V13.0071H7.28577V12.4071H8.74291V11.7857H7.28577V11.2114H8.74291Z" fill="#EBEBEB"/>
</g>
<defs>
<clipPath id="clip0_31_14124">
<rect width="24" height="24" fill="white"/>
</clipPath>
</defs>
</svg>

<svg xmlns="http://www.w3.org/2000/svg" width="24" height="24" fill="none" viewBox="0 0 24 24"><g clip-path="url(#a)"><path fill="#F0F3FA" d="M0 0h24v24H0z"/><path fill="#9CE3E5" d="M12 18.857a6.857 6.857 0 1 0 0-13.714 6.857 6.857 0 0 0 0 13.714"/><path fill="#4F97A5" d="M18.857 12a6.857 6.857 0 1 1-13.714 0z"/><path fill="#36C7CE" d="M12 18.428a6.429 6.429 0 1 0 0-12.857 6.429 6.429 0 0 0 0 12.857"/><path fill="#359BB1" d="M12.729 18.814 8.743 15l1.388-4.569 1.603 1.818L14.841 9l3.965 3.857a7.1 7.1 0 0 1-1.363 3.33 7 7 0 0 1-4.715 2.627"/><path fill="#3AB1D3" d="M18.429 12c0-2.25-2.773-6-6.429-6s-6.429 3.424-6.429 6a6.429 6.429 0 1 1 12.858 0"/><path fill="#28808E" d="M8.901 11.413V9.202h1.41l1.612 2.644 1.586-2.644H15v2.211l1.286-.201.171.201V12H15v.613l1.282-.201.17.201v.6H15v1.993h-1.316L13.513 15l.171-3.587-1.8 2.443-1.68-2.443v3.793H8.97L8.743 15l.158-1.787H7.444l-.158-.206.158-.394h1.457v-.626H7.444l-.158-.201.158-.373z"/><path fill="#EBEBEB" d="M8.743 11.211V9h1.474l1.543 2.533L13.337 9h1.5v2.211h1.449v.575H14.84v.621h1.445v.6H14.84V15h-1.328v-3.789l-1.757 2.452-1.715-2.452V15H8.744v-1.993H7.286v-.6h1.457v-.621H7.286v-.575z"/></g><defs><clipPath id="a"><path fill="#fff" d="M0 0h24v24H0z"/></clipPath></defs></svg>
